src/images/section-package-content-bg-768.svg

<svg fill="none" height="1295" viewBox="0 0 768 1295" width="768" xmlns="http://www.w3.org/2000/svg"><g fill="#2f80ed"><path d="m62.7008 777.776c1.0726 43.353 29.9668 81.075 71.5452 93.402l901.554 267.282c51.09 15.15 105.08-12.43 122.76-62.7l272.7-775.4c21.97-62.462-21.73-128.643-87.81-132.964l-1134.146-74.182c-87.98-5.7545-161.9247 65.249-159.7441 153.39z"/><path d="m-243.773 831.392c-1.912 44.437 25.756 84.797 67.894 99.036l983.815 332.452c52.449 17.72 109.317-10.54 126.86-63.05l323.414-968.075c20.68-61.893-22.5-126.687-87.58-131.423l-1224.523-89.1166c-84.362-6.13958-157.113 58.6495-160.749 143.1566z" fill-opacity=".1"/></g></svg>

<svg width="768" height="1295" viewBox="0 0 768 1295" fill="none" xmlns="http://www.w3.org/2000/svg">
<path d="M62.7008 777.776C63.7734 821.129 92.6676 858.851 134.246 871.178L1035.8 1138.46C1086.89 1153.61 1140.88 1126.03 1158.56 1075.76L1431.26 300.36C1453.23 237.898 1409.53 171.717 1343.45 167.396L209.304 93.214C121.324 87.4595 47.3793 158.463 49.5599 246.604L62.7008 777.776Z" fill="#2F80ED"/>
<path d="M-243.773 831.392C-245.685 875.829 -218.017 916.189 -175.879 930.428L807.936 1262.88C860.385 1280.6 917.253 1252.34 934.796 1199.83L1258.21 231.755C1278.89 169.862 1235.71 105.068 1170.63 100.332L-53.893 11.2154C-138.255 5.07582 -211.006 69.8649 -214.642 154.372L-243.773 831.392Z" fill="#2F80ED" fill-opacity="0.1"/>
</svg>
